X:140
T:AIR XVI. Wert thou but my ain Thing.
O:england
B:Joseph Mitchell: "The Highland Fair" (1731)
M:C
L:1/8
K:G
D3 G G3 B|A2GF E4 | GFED   GAB2 | cBAG  Bcd2|\
D3 G G3 B|A2GF E4 |(ded)B (cBAG)| G3 A  B4 :|
d2D2 D3 B|A2GF E3F| D2 d2  d3  e|(ded)c B2BB|\
cdec BcdB|ABcA D3e|(ded)B (cBA)G| G3  A B4 :|
